gatsby/static/docs/projects/images/bucktrix.svg

<?xml version="1.0" encoding="UTF-8"?>
<!DOCTYPE svg PUBLIC "-//W3C//DTD SVG 1.1//EN" "http://www.w3.org/Graphics/SVG/1.1/DTD/svg11.dtd">
<svg xmlns="http://www.w3.org/2000/svg" xmlns:xlink="http://www.w3.org/1999/xlink" version="1.1" width="288" height="153" viewBox="-0.5 -0.5 288 153"><path fill="#ff8000" pointer-events="all" d="M191 21h40v30h-40zM1 21h40v30H1z"/><rect x="21" y="1" width="190" height="150" rx="22.5" ry="22.5" fill="#fff" stroke="#060" stroke-width="3" pointer-events="all"/><circle cx="76" cy="51" fill="#00994d" stroke="#060" stroke-width="3" pointer-events="all" r="20"/><switch transform="translate(-.5 -.5)"><foreignObject style="overflow:visible;text-align:left" pointer-events="none" width="100%" height="100%" requiredFeatures="http://www.w3.org/TR/SVG11/feature#Extensibility"><div xmlns="http://www.w3.org/1999/xhtml" style="display:flex;align-items:unsafe center;justify-content:unsafe center;width:38px;height:1px;padding-top:51px;margin-left:57px"><div style="box-sizing:border-box;font-size:0;text-align:center"><div style="display:inline-block;font-size:12px;font-family:Helvetica;color:#000;line-height:1.2;pointer-events:all;white-space:normal;word-wrap:normal"><font color="#FFF"><b><font style="font-size:21px">$</font></b></font></div></div></div></foreignObject><text x="76" y="55" fill="#000" font-family="Helvetica" font-size="12" text-anchor="middle">$</text></switch><rect x="56" y="101" width="120" height="30" rx="4.5" ry="4.5" fill="#fff" stroke="#060" stroke-width="3" pointer-events="all"/><path fill="none" pointer-events="all" d="M96 66h40v20H96z"/><switch transform="translate(-.5 -.5)"><foreignObject style="overflow:visible;text-align:left" pointer-events="none" width="100%" height="100%" requiredFeatures="http://www.w3.org/TR/SVG11/feature#Extensibility"><div xmlns="http://www.w3.org/1999/xhtml" style="display:flex;align-items:unsafe center;justify-content:unsafe center;width:38px;height:1px;padding-top:76px;margin-left:97px"><div style="box-sizing:border-box;font-size:0;text-align:center"><div style="display:inline-block;font-size:12px;font-family:Helvetica;color:#000;line-height:1.2;pointer-events:all;white-space:normal;word-wrap:normal"><font style="font-size:18px"><b>[m]</b></font></div></div></div></foreignObject><text x="116" y="80" fill="#000" font-family="Helvetica" font-size="12" text-anchor="middle">[m]</text></switch><path d="M164.75 98.5c-7 0-8.75 7.5-3.15 9-5.6 3.3.7 10.5 5.25 7.5 3.15 6 13.65 6 17.15 0 7 0 7-6 2.63-9 4.37-6-2.63-12-8.75-9-4.38-4.5-11.38-4.5-13.13 1.5zM244.75 56c-11 0-13.75 10-4.95 12-8.8 4.4 1.1 14 8.25 10 4.95 8 21.45 8 26.95 0 11 0 11-8 4.13-12 6.87-8-4.13-16-13.75-12-6.88-6-17.88-6-20.63 2zM201 78.5c-8 0-10 7.5-3.6 9-6.4 3.3.8 10.5 6 7.5 3.6 6 15.6 6 19.6 0 8 0 8-6 3-9 5-6-3-12-10-9-5-4.5-13-4.5-15 1.5z" fill-opacity=".6" fill="#e6e6e6" pointer-events="all"/><path d="M56 116h120" fill="none" stroke="#00994d" stroke-miterlimit="10" pointer-events="stroke"/><circle cx="156" cy="51" fill="#00994d" stroke="#060" stroke-width="3" pointer-events="all" r="20"/><switch transform="translate(-.5 -.5)"><foreignObject style="overflow:visible;text-align:left" pointer-events="none" width="100%" height="100%" requiredFeatures="http://www.w3.org/TR/SVG11/feature#Extensibility"><div xmlns="http://www.w3.org/1999/xhtml" style="display:flex;align-items:unsafe center;justify-content:unsafe center;width:38px;height:1px;padding-top:51px;margin-left:137px"><div style="box-sizing:border-box;font-size:0;text-align:center"><div style="display:inline-block;font-size:12px;font-family:Helvetica;color:#000;line-height:1.2;pointer-events:all;white-space:normal;word-wrap:normal"><font color="#FFF"><b><font style="font-size:21px">$</font></b></font></div></div></div></foreignObject><text x="156" y="55" fill="#000" font-family="Helvetica" font-size="12" text-anchor="middle">$</text></switch><switch><a transform="translate(0 -5)" xlink:href="https://www.diagrams.net/doc/faq/svg-export-text-problems" target="_blank"><text text-anchor="middle" font-size="10" x="50%" y="100%">Viewer does not support full SVG 1.1</text></a></switch></svg>

<?xml version="1.0" encoding="UTF-8"?>
<!DOCTYPE svg PUBLIC "-//W3C//DTD SVG 1.1//EN" "http://www.w3.org/Graphics/SVG/1.1/DTD/svg11.dtd">
<svg xmlns="http://www.w3.org/2000/svg" xmlns:xlink="http://www.w3.org/1999/xlink" version="1.1" width="288px" height="153px" viewBox="-0.5 -0.5 288 153" content="&lt;mxfile host=&quot;app.diagrams.net&quot; modified=&quot;2021-05-21T09:58:35.600Z&quot; agent=&quot;5.0 (X11)&quot; etag=&quot;cES-N0h-77lefOIVcG6p&quot; version=&quot;14.7.0&quot; type=&quot;device&quot;&gt;&lt;diagram id=&quot;84TFfX5aFqGWBH08rOEm&quot; name=&quot;Page-1&quot;&gt;7Vhdb9sgFP01fuwExnacx+Zr68OkSdHU9mmiNrXpsMkIbpL9+kEM/s6SqklXVUukxBzg2px7LvdiB02z7WeBV+lXHhPmuCDeOmjmuO4odNWvBnYl4MGwBBJB4xKCNbCkv4kBgUELGpN1a6DknEm6aoMRz3MSyRaGheCb9rBHztp3XeGE9IBlhFkfvaWxTEs09EGNfyE0Se2dITA9GbaDDbBOccw3DQjNHTQVnMvyKttOCdPcWV7KeYsDvdWDCZLLUybcXuHi5i5Nb358Hz8/LRdPYXB/5ZVWnjErzILNw8qdZUDwIo+JNgIcNNmkVJLlCke6d6NcrrBUZky1oLpcS8F/VkyhCplyxoVCcp6riZNHypiFHBctFiEA2rp5GiIk2R5cJqzIU6IjPCNS7NQQM8EbGb6N4ELT3NTe8wyUNhyHDIaNXpLKcE2pujCsvoBh98MxXFH6ThiGL2EYvp5hRScAQXAuOhFo0xn06YTjAT6hfylC/QFCAya1qrhak95sLRPBr0LvX5O9xPSnCQWJ+d/PfegCxljtJjtTd1yt96ngWg1w4Wo7ZNazhtQiS1tt+wru3bM3tCMUxY7KLOS8IunEIgDjsTc7k3iQ3xLP+LRY9C4lndHFY7G3se1Vd+kY7dAMh4LUfctNLzwWo0fDCobDYdWNVn+SOf7sNUGleJdDbv1LyjIQZjTJVTNSfiIKn2gvUlWdXZuOjMYxOxSu7bx6DhmMOjJw/ZPCzb1Y6gPH463e0lQFutJgxHgRnyH25oH+HnInV4ap1EwF5yrtulHo96PQDnmbyuOE0uPj0O/DdqECQV/9/gD9F0s28ITa+uPQ3z3YQPSv6250Av15fK1P4TUxDYrVwsXurtm413v1J982Z1uzd5etnWkNpPpWRUXi3pm+Q7ILJBYJkccqmb4zmlofINtigjAs6XP7MYY8YO7wjdN91j5Ub9jEY02seSEiYmY1D/0dQ13R9IKx5KFnaC+Iatmv0MjQC4b/Z4l3eZbw4FudJVSzfu9VSq1+eYjmfwA=&lt;/diagram&gt;&lt;/mxfile&gt;"><defs/><g><rect x="191" y="21" width="40" height="30" fill="#ff8000" stroke="none" pointer-events="all"/><rect x="1" y="21" width="40" height="30" fill="#ff8000" stroke="none" pointer-events="all"/><rect x="21" y="1" width="190" height="150" rx="22.5" ry="22.5" fill="#ffffff" stroke="#006600" stroke-width="3" pointer-events="all"/><ellipse cx="76" cy="51" rx="20" ry="20" fill="#00994d" stroke="#006600" stroke-width="3" pointer-events="all"/><g transform="translate(-0.5 -0.5)"><switch><foreignObject style="overflow: visible; text-align: left;" pointer-events="none" width="100%" height="100%" requiredFeatures="http://www.w3.org/TR/SVG11/feature#Extensibility"><div xmlns="http://www.w3.org/1999/xhtml" style="display: flex; align-items: unsafe center; justify-content: unsafe center; width: 38px; height: 1px; padding-top: 51px; margin-left: 57px;"><div style="box-sizing: border-box; font-size: 0; text-align: center; "><div style="display: inline-block; font-size: 12px; font-family: Helvetica; color: #000000; line-height: 1.2; pointer-events: all; white-space: normal; word-wrap: normal; "><font color="#FFFFFF"><b><font style="font-size: 21px">$</font></b></font></div></div></div></foreignObject><text x="76" y="55" fill="#000000" font-family="Helvetica" font-size="12px" text-anchor="middle">$</text></switch></g><rect x="56" y="101" width="120" height="30" rx="4.5" ry="4.5" fill="#ffffff" stroke="#006600" stroke-width="3" pointer-events="all"/><rect x="96" y="66" width="40" height="20" fill="none" stroke="none" pointer-events="all"/><g transform="translate(-0.5 -0.5)"><switch><foreignObject style="overflow: visible; text-align: left;" pointer-events="none" width="100%" height="100%" requiredFeatures="http://www.w3.org/TR/SVG11/feature#Extensibility"><div xmlns="http://www.w3.org/1999/xhtml" style="display: flex; align-items: unsafe center; justify-content: unsafe center; width: 38px; height: 1px; padding-top: 76px; margin-left: 97px;"><div style="box-sizing: border-box; font-size: 0; text-align: center; "><div style="display: inline-block; font-size: 12px; font-family: Helvetica; color: #000000; line-height: 1.2; pointer-events: all; white-space: normal; word-wrap: normal; "><font style="font-size: 18px"><b>[m]</b></font></div></div></div></foreignObject><text x="116" y="80" fill="#000000" font-family="Helvetica" font-size="12px" text-anchor="middle">[m]</text></switch></g><path d="M 164.75 98.5 C 157.75 98.5 156 106 161.6 107.5 C 156 110.8 162.3 118 166.85 115 C 170 121 180.5 121 184 115 C 191 115 191 109 186.63 106 C 191 100 184 94 177.88 97 C 173.5 92.5 166.5 92.5 164.75 98.5 Z" fill-opacity="0.6" fill="#e6e6e6" stroke="none" pointer-events="all"/><path d="M 244.75 56 C 233.75 56 231 66 239.8 68 C 231 72.4 240.9 82 248.05 78 C 253 86 269.5 86 275 78 C 286 78 286 70 279.13 66 C 286 58 275 50 265.38 54 C 258.5 48 247.5 48 244.75 56 Z" fill-opacity="0.6" fill="#e6e6e6" stroke="none" pointer-events="all"/><path d="M 201 78.5 C 193 78.5 191 86 197.4 87.5 C 191 90.8 198.2 98 203.4 95 C 207 101 219 101 223 95 C 231 95 231 89 226 86 C 231 80 223 74 216 77 C 211 72.5 203 72.5 201 78.5 Z" fill-opacity="0.6" fill="#e6e6e6" stroke="none" pointer-events="all"/><path d="M 56 116 L 176 116" fill="none" stroke="#00994d" stroke-miterlimit="10" pointer-events="stroke"/><ellipse cx="156" cy="51" rx="20" ry="20" fill="#00994d" stroke="#006600" stroke-width="3" pointer-events="all"/><g transform="translate(-0.5 -0.5)"><switch><foreignObject style="overflow: visible; text-align: left;" pointer-events="none" width="100%" height="100%" requiredFeatures="http://www.w3.org/TR/SVG11/feature#Extensibility"><div xmlns="http://www.w3.org/1999/xhtml" style="display: flex; align-items: unsafe center; justify-content: unsafe center; width: 38px; height: 1px; padding-top: 51px; margin-left: 137px;"><div style="box-sizing: border-box; font-size: 0; text-align: center; "><div style="display: inline-block; font-size: 12px; font-family: Helvetica; color: #000000; line-height: 1.2; pointer-events: all; white-space: normal; word-wrap: normal; "><font color="#FFFFFF"><b><font style="font-size: 21px">$</font></b></font></div></div></div></foreignObject><text x="156" y="55" fill="#000000" font-family="Helvetica" font-size="12px" text-anchor="middle">$</text></switch></g></g><switch><g requiredFeatures="http://www.w3.org/TR/SVG11/feature#Extensibility"/><a transform="translate(0,-5)" xlink:href="https://www.diagrams.net/doc/faq/svg-export-text-problems" target="_blank"><text text-anchor="middle" font-size="10px" x="50%" y="100%">Viewer does not support full SVG 1.1</text></a></switch></svg>
